X: 3
T:Miss Spence
M:4/4
L:1/8
S:Shetland Tune Book
R:Reel
K:D
|:"D"A|d2AGF2DF|"C"E2=CE=c3A|"Bm7"~B2AGF2[A2,D2]|[A,D]"D" d2c d3:||
|:"D"e|fafd fafd|"A"egec egec|"D"fafd fafd|"A"egec "D"d3:||
